libs/common/icons/src/icons/ServicesOutlined.svg

<svg width="24" height="24" viewBox="0 0 24 24" fill="none" xmlns="http://www.w3.org/2000/svg">
<path d="M4.43416 11.6015C4.43416 13.0234 5.58678 14.176 7.0086 14.176C8.43042 14.176 9.58304 13.0234 9.58304 11.6015C9.58304 10.1797 8.43042 9.0271 7.0086 9.0271C5.58678 9.0271 4.43416 10.1797 4.43416 11.6015Z" stroke="#333333" stroke-width="0.8" stroke-linecap="round" stroke-linejoin="round"/>
<path d="M2.87895 14.5804C2.73586 14.3677 2.60897 14.1445 2.49933 13.9128L0.921999 13.0253C0.734366 12.1389 0.738988 11.2227 0.935554 10.3383L2.5239 9.46851C2.63657 9.23824 2.76638 9.01677 2.91223 8.80595L2.89221 6.99617C3.56598 6.39051 4.36179 5.93639 5.22598 5.66443L6.7734 6.60508C7.02915 6.58752 7.28586 6.58921 7.54135 6.61012L9.09866 5.68789C9.96006 5.96855 10.7513 6.43068 11.4189 7.04311L11.378 8.85354C11.521 9.06625 11.6479 9.28941 11.7576 9.52113L13.3349 10.4087C13.5225 11.295 13.5179 12.2113 13.3213 13.0957L11.733 13.9654C11.6203 14.1957 11.4905 14.4172 11.3447 14.628L11.3647 16.4378C10.6909 17.0434 9.8951 17.4975 9.03092 17.7695L7.4835 16.8289C7.22775 16.8464 6.97104 16.8447 6.71554 16.8238L5.15823 17.7461C4.29683 17.4654 3.50564 17.0033 2.83802 16.3908L2.87895 14.5804Z" stroke="#333333" stroke-width="0.8" stroke-linecap="round" stroke-linejoin="round"/>
<path d="M18.1729 8.26092C18.8936 8.15101 19.3887 7.47769 19.2788 6.757C19.1689 6.03632 18.4956 5.54119 17.7749 5.65109C17.0542 5.761 16.5591 6.43433 16.669 7.15501C16.7789 7.87569 17.4522 8.37083 18.1729 8.26092Z" stroke="#333333" stroke-width="0.8" stroke-linecap="round" stroke-linejoin="round"/>
<path d="M20.4103 4.52371C20.5258 4.64792 20.6319 4.78064 20.7275 4.92074L21.8504 5.33754C22.0648 5.89741 22.1566 6.49676 22.1197 7.09515L21.1716 7.8281C21.1218 7.99027 21.0599 8.14846 20.9864 8.30135L21.1869 9.48216C20.8092 9.94778 20.3361 10.327 19.7994 10.5942L18.6906 10.1396C18.5253 10.1776 18.3573 10.2031 18.1881 10.2158L17.2658 10.9799C16.6737 10.8856 16.1087 10.6655 15.609 10.3343L15.4483 9.14677C15.3327 9.02256 15.2267 8.88984 15.131 8.74974L14.0082 8.33294C13.7938 7.77306 13.7019 7.17371 13.7388 6.57532L14.6869 5.84238C14.7367 5.68021 14.7986 5.52201 14.8721 5.36912L14.6717 4.18832C15.0493 3.7227 15.5225 3.34348 16.0591 3.07625L17.1679 3.53085C17.3333 3.49289 17.5012 3.46741 17.6704 3.45463L18.5928 2.69061C19.1849 2.78487 19.7498 3.005 20.2496 3.33616L20.4103 4.52371Z" stroke="#333333" stroke-width="0.8" stroke-linecap="round" stroke-linejoin="round"/>
<path d="M18.0768 18.279C18.7984 18.1689 19.2941 17.4948 19.1841 16.7732C19.074 16.0517 18.3999 15.556 17.6783 15.666C16.9568 15.776 16.4611 16.4502 16.5711 17.1717C16.6811 17.8933 17.3553 18.389 18.0768 18.279Z" stroke="#333333" stroke-width="0.8" stroke-linecap="round" stroke-linejoin="round"/>
<path d="M20.8628 15.7553C20.9236 15.9047 20.973 16.0585 21.0107 16.2153L21.8679 16.9649C21.8694 17.5349 21.7487 18.0986 21.5139 18.6179L20.4237 18.9492C20.3247 19.0765 20.2163 19.1962 20.0993 19.3073L19.8788 20.4245C19.3859 20.7108 18.8374 20.8881 18.2702 20.9444L17.4382 20.1659C17.2784 20.1439 17.1206 20.1098 16.9659 20.064L15.8882 20.4316C15.3938 20.148 14.966 19.7615 14.6336 19.2985L14.8917 18.1888C14.831 18.0394 14.7815 17.8856 14.7438 17.7288L13.8866 16.9792C13.8851 16.4092 14.0058 15.8455 14.2407 15.3262L15.3308 14.9949C15.4298 14.8675 15.5382 14.7478 15.6552 14.6368L15.8757 13.5196C16.3686 13.2333 16.9171 13.056 17.4844 12.9997L18.3163 13.7781C18.4761 13.8002 18.634 13.8343 18.7886 13.88L19.8664 13.5124C20.3608 13.7961 20.7886 14.1825 21.1209 14.6456L20.8628 15.7553Z" stroke="#333333" stroke-width="0.8" stroke-linecap="round" stroke-linejoin="round"/>
</svg>

<svg xmlns="http://www.w3.org/2000/svg" width="24" height="24" fill="none" viewBox="0 0 24 24">
  <path stroke="currentColor" stroke-linecap="round" stroke-linejoin="round" stroke-width=".8" d="M4.434 11.601a2.574 2.574 0 1 0 5.15 0 2.574 2.574 0 0 0-5.15 0Z"/>
  <path stroke="currentColor" stroke-linecap="round" stroke-linejoin="round" stroke-width=".8" d="M2.879 14.58a5.118 5.118 0 0 1-.38-.667l-1.577-.888a6.336 6.336 0 0 1 .014-2.687l1.588-.87c.113-.23.242-.451.388-.662l-.02-1.81a6.336 6.336 0 0 1 2.334-1.332l1.547.941c.256-.017.513-.016.768.005L9.1 5.688c.861.28 1.652.743 2.32 1.355l-.041 1.81c.143.213.27.436.38.668l1.577.888a6.336 6.336 0 0 1-.014 2.687l-1.588.87c-.113.23-.242.451-.388.662l.02 1.81A6.338 6.338 0 0 1 9.03 17.77l-1.548-.941a5.127 5.127 0 0 1-.767-.005l-1.558.922a6.336 6.336 0 0 1-2.32-1.355l.041-1.81ZM18.173 8.26a1.32 1.32 0 1 0-.398-2.609 1.32 1.32 0 0 0 .398 2.61Z"/>
  <path stroke="currentColor" stroke-linecap="round" stroke-linejoin="round" stroke-width=".8" d="M20.41 4.524c.116.124.222.257.317.397l1.123.417c.215.56.307 1.159.27 1.757l-.948.733c-.05.162-.112.32-.186.473l.2 1.181c-.377.466-.85.845-1.387 1.112l-1.108-.454a3.368 3.368 0 0 1-.503.076l-.922.764a4.192 4.192 0 0 1-1.657-.646l-.16-1.187a3.386 3.386 0 0 1-.318-.397l-1.123-.417a4.193 4.193 0 0 1-.27-1.758l.949-.733c.05-.162.112-.32.185-.473l-.2-1.18c.377-.466.85-.846 1.387-1.113l1.109.455c.165-.038.333-.064.502-.076l.923-.764a4.193 4.193 0 0 1 1.657.645l.16 1.188ZM18.077 18.279a1.322 1.322 0 1 0-.399-2.613 1.322 1.322 0 0 0 .399 2.613Z"/>
  <path stroke="currentColor" stroke-linecap="round" stroke-linejoin="round" stroke-width=".8" d="M20.863 15.755c.06.15.11.303.148.46l.857.75c.001.57-.12 1.134-.354 1.653l-1.09.331a3.218 3.218 0 0 1-.325.358l-.22 1.117a3.987 3.987 0 0 1-1.609.52l-.832-.778a3.202 3.202 0 0 1-.472-.102l-1.078.368a3.986 3.986 0 0 1-1.254-1.133l.258-1.11c-.061-.15-.11-.303-.148-.46l-.857-.75c-.002-.57.119-1.133.354-1.653l1.09-.331a3.2 3.2 0 0 1 .324-.358l.22-1.117a3.987 3.987 0 0 1 1.61-.52l.831.778c.16.022.318.056.473.102l1.077-.368c.495.284.923.67 1.255 1.134l-.258 1.11Z"/>
</svg>
